icons/power.svg

<svg xmlns="http://www.w3.org/2000/svg" width="96" height="96"><path d="M44 6c0-1.1.4-2.1 1.2-2.8.7-.8 1.7-1.2 2.8-1.2 1.1 0 2.1.4 2.8 1.2.8.7 1.2 1.7 1.2 2.8v32c0 1.1-.4 2.1-1.2 2.8-.7.8-1.7 1.2-2.8 1.2-1.1 0-2.1-.4-2.8-1.2-.8-.7-1.2-1.7-1.2-2.8V6zm33.7 16.3C85.6 30.2 90 40.9 90 52c0 11.1-4.4 21.8-12.3 29.7C69.8 89.6 59.1 94 48 94c-11.1 0-21.8-4.4-29.7-12.3C10.4 73.8 6 63.1 6 52c0-11.1 4.4-21.8 12.3-29.7.8-.7 1.8-1.2 2.8-1.2 1.1 0 2.1.5 2.9 1.2.7.8 1.1 1.8 1.1 2.8 0 1.1-.4 2.1-1.1 2.9-6.4 6.3-10 15-10 24s3.6 17.7 10 24c6.3 6.4 15 10 24 10s17.7-3.6 24-10c6.4-6.3 10-15 10-24s-3.6-17.7-10-24c-.7-.8-1.1-1.8-1.1-2.9 0-1 .4-2 1.1-2.8.8-.7 1.8-1.2 2.9-1.2 1 0 2 .5 2.8 1.2zM82 52z" fill-rule="evenodd" fill="#454545"/></svg>

<?xml version="1.0" standalone="no"?><!-- Generator: Gravit.io --><svg xmlns="http://www.w3.org/2000/svg" xmlns:xlink="http://www.w3.org/1999/xlink" width="96" height="96"><path d=" M 44 6 C 44 4.9 44.4 3.9000000000000004 45.2 3.1999999999999993 C 45.9 2.4000000000000004 46.9 2 48 2 C 49.1 2 50.1 2.4000000000000004 50.8 3.1999999999999993 C 51.6 3.9000000000000004 52 4.9 52 6 L 52 38 C 52 39.1 51.6 40.1 50.8 40.8 C 50.1 41.6 49.1 42 48 42 C 46.9 42 45.9 41.6 45.2 40.8 C 44.4 40.1 44 39.1 44 38 L 44 6 Z  M 77.7 22.3 C 85.6 30.200000000000003 90 40.9 90 52 C 90 52 90 52 90 52 L 90 52 C 90 63.099999999999994 85.6 73.8 77.7 81.7 C 69.8 89.6 59.1 94 48 94 C 36.9 94 26.2 89.6 18.3 81.7 C 10.4 73.8 6 63.099999999999994 6 52 C 6 40.9 10.4 30.200000000000003 18.3 22.3 C 19.1 21.6 20.1 21.1 21.1 21.1 C 22.2 21.1 23.2 21.6 24 22.3 C 24.7 23.1 25.1 24.1 25.1 25.1 C 25.1 26.200000000000003 24.7 27.200000000000003 24 28 C 17.6 34.3 14 43 14 52 C 14 61 17.6 69.7 24 76 C 30.3 82.4 39 86 48 86 C 57 86 65.7 82.4 72 76 C 78.4 69.7 82 61 82 52 C 82 43 78.4 34.3 72 28 C 71.3 27.200000000000003 70.9 26.200000000000003 70.9 25.1 C 70.9 24.1 71.3 23.1 72 22.3 C 72.8 21.6 73.8 21.1 74.9 21.1 C 75.9 21.1 76.9 21.6 77.7 22.3 Z  M 82 52 L 82 52 C 82 52 82 52 82 52 Z " fill-rule="evenodd" fill="#454545" stroke="none"/><mask id="_mask_90twdy0puSFNasRrbTgbAAbOEZvsss98"><path d=" M 44 6 C 44 4.9 44.4 3.9000000000000004 45.2 3.1999999999999993 C 45.9 2.4000000000000004 46.9 2 48 2 C 49.1 2 50.1 2.4000000000000004 50.8 3.1999999999999993 C 51.6 3.9000000000000004 52 4.9 52 6 L 52 38 C 52 39.1 51.6 40.1 50.8 40.8 C 50.1 41.6 49.1 42 48 42 C 46.9 42 45.9 41.6 45.2 40.8 C 44.4 40.1 44 39.1 44 38 L 44 6 Z  M 77.7 22.3 C 85.6 30.200000000000003 90 40.9 90 52 C 90 52 90 52 90 52 L 90 52 C 90 63.099999999999994 85.6 73.8 77.7 81.7 C 69.8 89.6 59.1 94 48 94 C 36.9 94 26.2 89.6 18.3 81.7 C 10.4 73.8 6 63.099999999999994 6 52 C 6 40.9 10.4 30.200000000000003 18.3 22.3 C 19.1 21.6 20.1 21.1 21.1 21.1 C 22.2 21.1 23.2 21.6 24 22.3 C 24.7 23.1 25.1 24.1 25.1 25.1 C 25.1 26.200000000000003 24.7 27.200000000000003 24 28 C 17.6 34.3 14 43 14 52 C 14 61 17.6 69.7 24 76 C 30.3 82.4 39 86 48 86 C 57 86 65.7 82.4 72 76 C 78.4 69.7 82 61 82 52 C 82 43 78.4 34.3 72 28 C 71.3 27.200000000000003 70.9 26.200000000000003 70.9 25.1 C 70.9 24.1 71.3 23.1 72 22.3 C 72.8 21.6 73.8 21.1 74.9 21.1 C 75.9 21.1 76.9 21.6 77.7 22.3 Z  M 82 52 L 82 52 C 82 52 82 52 82 52 Z " fill-rule="evenodd" fill="white" stroke="none"/></mask><path d=" M 44 6 C 44 4.9 44.4 3.9000000000000004 45.2 3.1999999999999993 C 45.9 2.4000000000000004 46.9 2 48 2 C 49.1 2 50.1 2.4000000000000004 50.8 3.1999999999999993 C 51.6 3.9000000000000004 52 4.9 52 6 L 52 38 C 52 39.1 51.6 40.1 50.8 40.8 C 50.1 41.6 49.1 42 48 42 C 46.9 42 45.9 41.6 45.2 40.8 C 44.4 40.1 44 39.1 44 38 L 44 6 Z  M 77.7 22.3 C 85.6 30.200000000000003 90 40.9 90 52 C 90 52 90 52 90 52 L 90 52 C 90 63.099999999999994 85.6 73.8 77.7 81.7 C 69.8 89.6 59.1 94 48 94 C 36.9 94 26.2 89.6 18.3 81.7 C 10.4 73.8 6 63.099999999999994 6 52 C 6 40.9 10.4 30.200000000000003 18.3 22.3 C 19.1 21.6 20.1 21.1 21.1 21.1 C 22.2 21.1 23.2 21.6 24 22.3 C 24.7 23.1 25.1 24.1 25.1 25.1 C 25.1 26.200000000000003 24.7 27.200000000000003 24 28 C 17.6 34.3 14 43 14 52 C 14 61 17.6 69.7 24 76 C 30.3 82.4 39 86 48 86 C 57 86 65.7 82.4 72 76 C 78.4 69.7 82 61 82 52 C 82 43 78.4 34.3 72 28 C 71.3 27.200000000000003 70.9 26.200000000000003 70.9 25.1 C 70.9 24.1 71.3 23.1 72 22.3 C 72.8 21.6 73.8 21.1 74.9 21.1 C 75.9 21.1 76.9 21.6 77.7 22.3 Z  M 82 52 L 82 52 C 82 52 82 52 82 52 Z " fill-rule="evenodd" fill="none" stroke="none" stroke-width="16" mask="url(#_mask_90twdy0puSFNasRrbTgbAAbOEZvsss98)"/></svg>
